X: 100290
M: C|
L: 1/8
K: D
(uFG) |\
e3(f ec)Ac | (ea)^ga (ec)Ac | d2fd c2ec | d2B2 B2((3ABc) |
(dc)dA (BA)GF | GABc d2(cd) | (BA)GF (GB)AG | F2D2 D2 :|


